workspaces/osm/styles/symbols/elevator.12.svg

<svg width="12" height="12" version="1.1" viewBox="0 0 12 12" xmlns="http://www.w3.org/2000/svg"><rect id="a" width="12" height="12" fill="none" visibility="hidden"/><path d="m8 0v1h2v10h-1.7441c-0.00902 0.33333-0.018038 0.66667-0.027057 1h3.7711v-12h-4zm-5 7c1 1.6667 2 3.3333 3 5 1-1.6667 2-3.3333 3-5h-2v-2h2c-1-1.6667-2-3.3333-3-5-1 1.6667-2 3.3333-3 5h2v2h-2zm0.58174 5c0.013529-0.33333 0.027057-0.66667 0.040586-1h-1.6223v-10h2v-1h-4v12h3.5817z" fill-rule="evenodd"/></svg>

<?xml version="1.0" encoding="UTF-8" standalone="no"?>
<svg
   xmlns:dc="http://purl.org/dc/elements/1.1/"
   xmlns:cc="http://creativecommons.org/ns#"
   xmlns:rdf="http://www.w3.org/1999/02/22-rdf-syntax-ns#"
   xmlns:svg="http://www.w3.org/2000/svg"
   xmlns="http://www.w3.org/2000/svg"
   version="1.1"
   width="12"
   height="12"
   viewBox="0 0 12 12"
   id="svg2">
  <metadata
     id="metadata8">
    <rdf:RDF>
      <cc:Work
         rdf:about="">
        <dc:format>image/svg+xml</dc:format>
        <dc:type
           rdf:resource="http://purl.org/dc/dcmitype/StillImage" />
        <dc:title></dc:title>
      </cc:Work>
    </rdf:RDF>
  </metadata>
  <defs
     id="defs6" />
  <rect
     width="12"
     height="12"
     x="0"
     y="0"
     id="canvas"
     style="visibility:hidden;fill:none;stroke:none" />
  <path
     id="path3339"
     style="fill:#000000;fill-opacity:1;fill-rule:evenodd;stroke:none;stroke-width:1px;stroke-linecap:butt;stroke-linejoin:miter;stroke-opacity:1"
     d="m 8,0 0,1 2,0 0,10 -1.7440812,0 -0.027057,1 L 12,12 12,0 Z M 3,7 6,12 9,7 7,7 7,5 9,5 6,0 3,5 5,5 5,7 Z M 3.5817362,12 3.6223224,11 2,11 2,1 4,1 4,0 0,0 0,12 Z" />
</svg>
